packages/ui-solid/icons/nightmode_28.svg

<svg width="28" height="28" viewBox="0 0 28 28" fill="none" xmlns="http://www.w3.org/2000/svg">
<path fill-rule="evenodd" clip-rule="evenodd" d="M10.6682 18.324C14.2968 18.324 17.4463 15.1341 17.4463 10.9333C17.4463 9.9836 17.2825 9.08077 16.9869 8.25353C16.68 7.39464 16.9831 6.53157 17.556 6.02175C18.1499 5.49323 19.1214 5.28192 19.9771 5.81048C23.0898 7.73313 25.1311 11.2931 25.1311 15.3098C25.1311 21.2609 20.5997 26.3006 14.753 26.3006C10.8297 26.3006 7.47258 24.0058 5.71563 20.7174C5.24059 19.8283 5.51697 18.8787 6.06569 18.3242C6.5957 17.7886 7.4634 17.5209 8.30844 17.8637C9.04276 18.1615 9.83677 18.324 10.6682 18.324ZM8.59092 21.7036C8.43873 21.5352 8.2925 21.3607 8.15258 21.1803C7.88169 20.831 7.63449 20.4599 7.41362 20.0698C7.37606 20.0035 7.33926 19.9366 7.30323 19.8692C7.1932 19.6632 7.41553 19.4439 7.63189 19.5317C7.68984 19.5552 7.74808 19.578 7.80662 19.6002C8.2117 19.7538 8.63075 19.8756 9.06119 19.963C9.22285 19.9958 9.38611 20.0238 9.55084 20.0468C9.91657 20.0977 10.2895 20.124 10.6682 20.124C15.4058 20.124 19.2463 16.0092 19.2463 10.9333C19.2463 10.5172 19.2205 10.1076 19.1705 9.70614C19.1449 9.50078 19.113 9.29757 19.075 9.09673C18.9917 8.65693 18.8792 8.22852 18.7396 7.81396C18.7209 7.75833 18.7016 7.70295 18.6819 7.64783C18.6034 7.42797 18.8325 7.2192 19.0312 7.34189C19.0925 7.37976 19.1533 7.41841 19.2136 7.45784C19.5905 7.70413 19.9482 7.98069 20.2839 8.28436C20.4844 8.46573 20.677 8.65678 20.8611 8.85682C22.3885 10.5163 23.3311 12.7951 23.3311 15.3098C23.3311 20.3858 19.4906 24.5006 14.753 24.5006C12.3347 24.5006 10.1502 23.4284 8.59092 21.7036Z" fill="#007AFF"/>
<path d="M10.1301 9.1724C10.2451 8.86144 10.3027 8.70596 10.3865 8.66162C10.4591 8.62321 10.546 8.62321 10.6186 8.66162C10.7025 8.70596 10.76 8.86144 10.8751 9.1724L11.2271 10.1237C11.2504 10.1867 11.262 10.2182 11.2806 10.2446C11.2971 10.268 11.3174 10.2884 11.3408 10.3048C11.3672 10.3234 11.3987 10.3351 11.4617 10.3584L12.4131 10.7104C12.724 10.8255 12.8795 10.883 12.9238 10.9668C12.9622 11.0394 12.9622 11.1264 12.9238 11.199C12.8795 11.2828 12.724 11.3403 12.4131 11.4554L11.4617 11.8074C11.3987 11.8307 11.3672 11.8424 11.3408 11.861C11.3174 11.8774 11.2971 11.8978 11.2806 11.9212C11.262 11.9476 11.2504 11.9791 11.2271 12.0421L10.8751 12.9934C10.76 13.3044 10.7025 13.4598 10.6186 13.5042C10.546 13.5426 10.4591 13.5426 10.3865 13.5042C10.3027 13.4598 10.2451 13.3044 10.1301 12.9934L9.77805 12.0421C9.75474 11.9791 9.74309 11.9476 9.72452 11.9212C9.70806 11.8978 9.68769 11.8774 9.6643 11.861C9.6379 11.8424 9.6064 11.8307 9.5434 11.8074L8.59207 11.4554C8.28112 11.3403 8.12564 11.2828 8.0813 11.199C8.04289 11.1264 8.04289 11.0394 8.0813 10.9668C8.12564 10.883 8.28112 10.8255 8.59207 10.7104L9.5434 10.3584C9.6064 10.3351 9.6379 10.3234 9.6643 10.3048C9.68769 10.2884 9.70806 10.268 9.72452 10.2446C9.74309 10.2182 9.75474 10.1867 9.77805 10.1237L10.1301 9.1724Z" fill="#007AFF"/>
<path d="M5.46065 3.33924C5.57571 3.02828 5.63324 2.8728 5.71707 2.82846C5.78968 2.79005 5.8766 2.79005 5.94921 2.82846C6.03304 2.8728 6.09057 3.02828 6.20563 3.33924L6.71523 4.71641C6.73854 4.77941 6.7502 4.81091 6.76877 4.83731C6.78522 4.86071 6.8056 4.88108 6.82899 4.89754C6.85539 4.9161 6.88689 4.92776 6.94989 4.95107L8.32707 5.46068C8.63802 5.57574 8.79349 5.63327 8.83784 5.7171C8.87625 5.78971 8.87625 5.87663 8.83784 5.94924C8.79349 6.03307 8.63802 6.0906 8.32707 6.20566L6.94989 6.71527C6.88689 6.73858 6.85539 6.75023 6.82899 6.7688C6.8056 6.78526 6.78522 6.80563 6.76877 6.82903C6.7502 6.85542 6.73854 6.88692 6.71523 6.94992L6.20563 8.3271C6.09057 8.63806 6.03304 8.79354 5.94921 8.83788C5.8766 8.87629 5.78968 8.87629 5.71707 8.83788C5.63324 8.79354 5.57571 8.63806 5.46065 8.3271L4.95105 6.94992C4.92774 6.88692 4.91608 6.85542 4.89751 6.82903C4.88106 6.80563 4.86068 6.78526 4.83729 6.7688C4.81089 6.75023 4.77939 6.73858 4.71639 6.71527L3.33921 6.20566C3.02826 6.0906 2.87279 6.03307 2.82844 5.94924C2.79003 5.87663 2.79003 5.78971 2.82844 5.7171C2.87279 5.63327 3.02826 5.57574 3.33921 5.46068L4.71639 4.95107C4.77939 4.92776 4.81089 4.9161 4.83729 4.89754C4.86068 4.88108 4.88106 4.86071 4.89751 4.83731C4.91608 4.81091 4.92774 4.77941 4.95105 4.71641L5.46065 3.33924Z" fill="#007AFF"/>
</svg>

<svg xmlns="http://www.w3.org/2000/svg" width="28" height="28" fill="none"><path fill="currentColor" fill-rule="evenodd" d="M10.668 18.324c3.629 0 6.778-3.19 6.778-7.39 0-.95-.164-1.853-.46-2.68a2.06 2.06 0 0 1 .57-2.232 2.03 2.03 0 0 1 2.421-.212c3.113 1.923 5.154 5.483 5.154 9.5 0 5.95-4.531 10.99-10.378 10.99-3.923 0-7.28-2.294-9.037-5.583a2.03 2.03 0 0 1 .35-2.393 2.06 2.06 0 0 1 2.242-.46c.735.297 1.529.46 2.36.46m-2.077 3.38a9 9 0 0 1-1.288-1.835c-.11-.206.113-.425.329-.337a8 8 0 0 0 1.43.431 8 8 0 0 0 1.606.161c4.738 0 8.578-4.115 8.578-9.19a10 10 0 0 0-.171-1.837 9.6 9.6 0 0 0-.393-1.45c-.079-.219.15-.428.35-.305l.182.116a8.7 8.7 0 0 1 1.647 1.399c1.527 1.66 2.47 3.938 2.47 6.453 0 5.076-3.84 9.19-8.578 9.19-2.418 0-4.603-1.072-6.162-2.796" clip-rule="evenodd"/><path fill="currentColor" d="M10.13 9.172c.115-.31.173-.466.256-.51a.25.25 0 0 1 .233 0c.084.044.141.2.256.51l.352.952a.5.5 0 0 0 .054.12.3.3 0 0 0 .06.06c.026.02.058.031.12.054l.952.352c.311.115.466.173.51.257a.25.25 0 0 1 0 .232c-.043.084-.199.141-.51.256l-.951.352a.5.5 0 0 0-.121.054.3.3 0 0 0-.06.06c-.019.027-.03.058-.054.121l-.352.951c-.115.311-.172.467-.256.511a.25.25 0 0 1-.232 0c-.084-.044-.142-.2-.257-.51l-.352-.952a.5.5 0 0 0-.053-.12.3.3 0 0 0-.06-.061.5.5 0 0 0-.122-.054l-.95-.352c-.312-.115-.467-.172-.512-.256a.25.25 0 0 1 0-.232c.045-.084.2-.142.511-.257l.951-.352a.5.5 0 0 0 .121-.053.3.3 0 0 0 .06-.06c.02-.027.03-.058.054-.121zM5.46 3.34c.116-.312.173-.467.257-.512a.25.25 0 0 1 .232 0c.084.045.142.2.257.511l.51 1.377a.5.5 0 0 0 .053.121.3.3 0 0 0 .06.06c.026.02.058.03.12.054l1.378.51c.311.115.466.172.51.256a.25.25 0 0 1 0 .232c-.044.084-.199.142-.51.257l-1.377.51c-.063.023-.095.034-.121.053a.3.3 0 0 0-.06.06.5.5 0 0 0-.054.12l-.51 1.378c-.114.311-.172.467-.256.51a.25.25 0 0 1-.232 0c-.084-.043-.141-.199-.256-.51L4.95 6.95a.5.5 0 0 0-.053-.121.3.3 0 0 0-.06-.06c-.027-.019-.059-.03-.122-.054l-1.377-.51c-.31-.114-.466-.172-.51-.256a.25.25 0 0 1 0-.232c.044-.084.2-.141.51-.256l1.377-.51a.5.5 0 0 0 .121-.053.3.3 0 0 0 .06-.06.5.5 0 0 0 .054-.122z"/></svg>
